resources/svg/csv.svg

<svg xmlns="http://www.w3.org/2000/svg" viewBox="0 0 15 15" fill="currentColor"><path fill-rule="evenodd" clip-rule="evenodd" d="M1 1.5C1 0.671573 1.67157 0 2.5 0H10.7071L14 3.29289V13.5C14 14.3284 13.3284 15 12.5 15H2.5C1.67157 15 1 14.3284 1 13.5V1.5ZM2 6H5V7H3V10H5V11H2V6ZM9 6H6V9H8V10H6V11H9V8H7V7H9V6ZM11 6H10V9.70711L11.5 11.2071L13 9.70711V6H12V9.29289L11.5 9.79289L11 9.29289V6Z" fill="black"/></svg>

<svg xmlns="http://www.w3.org/2000/svg" viewBox="0 0 15 15" fill="currentColor"><path fill-rule="evenodd" clip-rule="evenodd" d="M1 1.5A1.5 1.5 0 012.5 0h8.207L14 3.293V13.5a1.5 1.5 0 01-1.5 1.5h-10A1.5 1.5 0 011 13.5v-12zM2 6h3v1H3v3h2v1H2V6zm7 0H6v3h2v1H6v1h3V8H7V7h2V6zm2 0h-1v3.707l1.5 1.5 1.5-1.5V6h-1v3.293l-.5.5-.5-.5V6z" fill="currentColor"/></svg>
